svg/design/ease_out_fill.svg

<svg xmlns="http://www.w3.org/2000/svg" width="24" height="24" viewBox="0 0 24 24"><g fill="none" fill-rule="evenodd"><path d="M24,0 L24,24 L0,24 L0,0 L24,0 Z M12.5935,23.2578 L12.5819,23.2595 L12.5109,23.295 L12.4919,23.2987 L12.4767,23.295 L12.4057,23.2595 C12.3958,23.2564 12.387,23.259 12.3821,23.2649 L12.378,23.2758 L12.3609,23.7031 L12.3659,23.7235 L12.3769,23.7357 L12.4805,23.8097 L12.4953,23.8136 L12.5071,23.8097 L12.6107,23.7357 L12.6233,23.7197 L12.6267,23.7031 L12.6096,23.2758 C12.6076,23.2657 12.601,23.2593 12.5935,23.2578 Z M12.8584,23.1453 L12.8445,23.1473 L12.6598,23.2397 L12.6499,23.2499 L12.6472,23.2611 L12.6651,23.6906 L12.6699,23.7034 L12.6784,23.7105 L12.8793,23.8032 C12.8914,23.8069 12.9022,23.803 12.9078,23.7952 L12.9118,23.7812 L12.8777,23.1665 C12.8753,23.1546 12.8674,23.147 12.8584,23.1453 Z M12.143,23.1473 C12.1332,23.1424 12.1222,23.1453 12.1156,23.1526 L12.1099,23.1665 L12.0758,23.7812 C12.0751,23.7927 12.0828,23.8019 12.0926,23.8046 L12.1083,23.8032 L12.3092,23.7105 L12.3186,23.7024 L12.3225,23.6906 L12.3404,23.2611 L12.3372,23.2485 L12.3278,23.2397 L12.143,23.1473 Z"/><path fill="#09244B" d="M13.2769,5.17345 C15.2436,3.65032 17.5321,2.5 20.0001,2.5 C20.8285,2.5 21.5001,3.17157 21.5001,4 C21.5001,4.82843 20.8285,5.5 20.0001,5.5 C18.468,5.5 16.8191,6.22468 15.1139,7.5453 C13.4221,8.85554 11.8098,10.6489 10.3829,12.5312 C7.53183,16.2922 5.58158,20.1911 5.34173,20.6708 C4.97124,21.4118 4.07023,21.7121 3.32926,21.3416 C2.5883,20.9712 2.28796,20.0701 2.65844,19.3292 L2.65905,19.328 C2.92174,18.8026 4.97066,14.7047 7.99223,10.7188 C9.50282,8.72614 11.2969,6.70696 13.2769,5.17345 Z"/></g></svg>

<svg xmlns="http://www.w3.org/2000/svg" width="24" height="24"><g fill="none" fill-rule="evenodd"><path d="M24 0v24H0V0zM12.594 23.258l-.012.002-.071.035-.02.004-.014-.004-.071-.036c-.01-.003-.019 0-.024.006l-.004.01-.017.428.005.02.01.013.104.074.015.004.012-.004.104-.074.012-.016.004-.017-.017-.427c-.002-.01-.009-.017-.016-.018m.264-.113-.014.002-.184.093-.01.01-.003.011.018.43.005.012.008.008.201.092c.012.004.023 0 .029-.008l.004-.014-.034-.614c-.003-.012-.01-.02-.02-.022m-.715.002a.023.023 0 0 0-.027.006l-.006.014-.034.614c0 .012.007.02.017.024l.015-.002.201-.093.01-.008.003-.011.018-.43-.003-.012-.01-.01z"/><path fill="#09244B" d="M13.277 5.173C15.244 3.65 17.532 2.5 20 2.5a1.5 1.5 0 0 1 0 3c-1.532 0-3.18.725-4.886 2.045-1.692 1.31-3.304 3.104-4.731 4.986-2.851 3.761-4.801 7.66-5.041 8.14a1.5 1.5 0 1 1-2.684-1.342l.001-.001c.263-.525 2.312-4.623 5.333-8.61 1.51-1.992 3.305-4.011 5.285-5.545"/></g></svg>
